X:1
T:Norwich (Mason), 77.77
T:Norwich (Mason), 77.77
T:Lowell Mason, 1825
T:Public Domain Courtesy of the Cyber Hymnal™
C:Lowell Mason, 1825
Z:Public Domain
Z:Courtesy of the Cyber Hymnal™
%%score 1 ( 2 3 )
L:1/8
Q:1/4=110
M:4/4
K:Bb
V:1 treble 
V:2 bass 
V:3 bass 
V:1
 [B,G]2 [DA]2 [DB]2 [EA]2 | [DG]2 [D^F]2 [DG]4 | [DB]2 [Fc]2 [Fd]2 [Gc]2 | [FB]2 [EA]2 [DB]4 | %4
 [Fd]2 [Fd]2 [Fc]2 [Fc]2 | [DB]2 [DB]2 [DA]4 | [DB]2 [Gc]2 [^Fd]2 ([DG][EA]) | %7
 [DB]2 [CA]2 [B,G]4 |] %8
V:2
 G,2 [D,^F,]2 G,2 [C,C]2 | [D,B,]2 [D,A,]2 [G,,B,]4 | G,2 [F,A,]2 B,2 [E,E]2 | %3
 [F,D]2 [F,C]2 [B,,B,]4 | B,2 B,2 [F,A,]2 [F,A,]2 | [G,B,]2 G,2 [D,^F,]4 | G,2 [E,G,]2 A,2 G,2 | %7
 [D,G,]2 [D,^F,]2 [G,,G,]4 |] %8
V:3
 G,2 G,2 x4 | x8 | G,2 B,2 x4 | x8 | B,2 B,2 x4 | x2 G,2 x4 | G,2 (D,C,) (B,,C,) x2 | x8 |] %8

